**kern	**silbe
*ICvox	*
*A-:	*
*M4/4	*
*clefC3	*
r;	.
=1	=1
1r	.
=2	=2
1r	.
=3	=3
1r	.
=4	=4
1r	.
=5	=5
1r	.
=6	=6
1r	.
=7	=7
1r	.
=8	=8
1r	.
=9	=9
1r	.
=10	=10
1r	.
=11	=11
1r	.
=12	=12
1r	.
=13	=13
1r	.
=14	=14
1r	.
=15	=15
1r	.
=16	=16
1r	.
=17	=17
1r	.
=18	=18
1r	.
=19	=19
1r	.
=20	=20
1r	.
=21	=21
1r	.
=22	=22
1r	.
=23	=23
1r	.
r;	.
=24	=24
*C:	*
1r	.
=25	=25
1r	.
=26	=26
4e	Sun-
2.g	-rise
=27	=27
4r	.
8g#q	_
4a	shine
8d#q	_
8e	down
8c	a
8d	lit-
8G	-tle
=28	=28
4A	love
8c	on
8A	the
4c	world
8c	to-
8A	-day
=29	=29
4.G	_
8r	.
8r	.
8G	M-
8d	-make
8c	a
=30	=30
8d#q	_
4e	mor-
2.g	-ning
=31	=31
4r	.
8g#q	_
4a	so
8d#q	_
8e	sweet
8c	that
8d	it-
8G	-'ll
=32	=32
8A	have
8c	to
8c	chase
8A	my
8Bq	_
4c	blues
8c	a-
8[d	-way
=33	=33
4d]	_
4r	.
4r	.
8dq	_
8e-	Oh,
8d	the
=34	=34
8d	moon
8c	_
8c	and
8d#q	_
8[e	stars
8e]	_
8d	have
16e	_
16d	_
8c	_
=35	=35
4c	gone
4r	.
8r	.
8c	and
8e	I
8d	can
=36	=36
4c	see
8c	the
8[f	light
8f]	_
4a	of
8[cc	dawn
=37	=37
2cc]	_
8r	.
8c	L-
8c	-like
8c	a
=38	=38
8e	gol-
4g	-den
8g	smile
8a	_
8r	.
8A	bright-
8A	-'ning
=39	=39
8dq	_
4e	up
8e	the
8[a-	brand
8a-]	_
4B	new
8[c	day
=40	=40
4c]	_
4r	.
2r	.
=41	=41
1r	.
=42	=42
4e	Sun-
2.g	-rise
=43	=43
4r	.
8g#q	_
4a	come
8d#q	_
8e	wrap
8c	me
8d	in
8G	the
=44	=44
4A	warmth
8c	of
8A	your
4c	crim-
8c	-son
8A	sky
=45	=45
4.G	_
8r	.
8r	.
8G	I
8d	spent
8c	a
=46	=46
8d#q	_
4e	long
4[g	time
8.g]	_
16f	_
4e	_
=47	=47
4r	.
8g#q	_
8a	be-
8d#q	_
8[e	-lie
16e]	_
16d	_
8c	ving
8d	in
8G	a
=48	=48
8A	dream
8c	_
8c	that
8A	had
8Bq	_
4c	passed
8c	me
8[d	by
=49	=49
4.d]	_
8r	.
4r	.
8e	But
8d	the
=50	=50
8d	moon
8c	_
8c	and
8d#q	_
8[e	stars
8e]	_
8d	have
16e	_
16d	_
8c	_
=51	=51
4c	gone
4r	.
8r	.
8c	and
8e	I
8d	can
=52	=52
4c	see
8c	the
8[f	light
8f]	_
4a	of
8[cc	dawn
=53	=53
2cc]	_
8r	.
8c	L-
8c	-like
8c	a
=54	=54
8e	gol-
4g	-den
8g	smile
8a	_
8r	.
8A	bright-
8A	-'ning
=55	=55
8dq	_
4e	up
8e	the
8[a-	mor
8a-]	_
4B	ning
8[c	sky
=56	=56
4c]	_
4r	.
2r	.
=57	=57
*A-:	*
1r	.
=58	=58
4r	.
8d-	From
8c	my
8d-	bed
8f	I
8b-q	_
8cc	can
8[b-	hear
=59	=59
8b-]	_
8fq	_
4g	the
8[f	world
8f]	_
8g	out-
4B-	-side
=60	=60
4r	.
8d-	I
8c	get
8d-	up,
8f	throw
8b-q	_
8cc	my
8[b-	win
=61	=61
8b-]	_
8fq	_
4g	dow
8[f	o
8f]	_
8g	pen
4e-	wide,
=62	=62
4r	.
8e-	take
8d	a
8e-	breath
8f	of
4g	that
=63	=63
4.a-	fresh
8c	_
2c	air
=64	=64
4r	.
8d-	take
8e-	a
8f	breath
8g	of
4a-	that
=65	=65
*C:	*
4.a-	fresh
8d	_
2d	air,
=66	=66
2.[b	fresh
4b]	_
=67	=67
1g	air!
=68	=68
1r	.
=69	=69
*M3/4	*
2.r	.
=70	=70
*M4/4	*
4e	Sun-
2.g	-rise
=71	=71
4r	.
8g#q	_
4a	shine
8d#q	_
8e	down
8c	a
8d	lit-
8G	-tle
=72	=72
4A	love
8c	on
8A	the
4c	world
8c	to-
8A	-day
=73	=73
4.G	_
8r	.
8r	.
8G	M-
8d	-make
8c	a
=74	=74
8d#q	_
4e	mor-
2.g	-ning
=75	=75
4r	.
8g#q	_
4a	so
8d#q	_
8e	sweet
8c	that
8d	it-
8G	-'ll
=76	=76
8A	have
8c	to
8c	chase
8A	my
8Bq	_
4c	blues
8c	a-
8[d	-way
=77	=77
4d]	_
4r	.
4r	.
8dq	_
8e-	Oh,
8d	the
=78	=78
8d	moon
8c	_
8c	and
8d#q	_
8[e	stars
8e]	_
8d	have
16e	_
16d	_
8c	_
=79	=79
4c	gone
4r	.
8r	.
8c	and
8e	I
8d	can
=80	=80
4c	see
8c	the
8[f	light
8f]	_
4a	of
8[cc	dawn
=81	=81
2cc]	_
8r	.
8c	L-
8c	-like
8c	a
=82	=82
8e	gol-
4g	-den
8g	smile
8a	_
8r	.
8A	bright-
8A	-'ning
=83	=83
8dq	_
4e	up
8e	the
8[a-	brand
8a-]	_
4B	new
8[c	day
=84	=84
2c]	_
2r	.
=85	=85
4r	.
8r	.
8cq	_
8[d	Brand
8d]	_
4.e-	new
=86	=86
1[a-	day
=87	=87
2.a-]	_
4r	.
=88	=88
1r	.
=89	=89
1r	.
=90	=90
1r	.
=91	=91
1r	.
=92	=92
1r	.
=93	=93
1r	.
=94	=94
1r	.
=95	=95
1r	.
=96	=96
1r	.
=97	=97
1r	.
=98	=98
1r	.
=99	=99
1r	.
=100	=100
1r	.
=101	=101
1r	.
=102	=102
1r	.
=103	=103
1r	.
=104	=104
1r	.
=105	=105
1r	.
=106	=106
1r	.
=107	=107
1r	.
=108	=108
1r	.
=109	=109
1r	.
=110	=110
1r	.
=111	=111
1r	.
=112	=112
1r	.
=113	=113
1r	.
=114	=114
1r	.
=115	=115
1r	.
=116	=116
1r	.
=117	=117
1r	.
=118	=118
1r	.
=119	=119
1r	.
=120	=120
1r	.
=121	=121
1r	.
=122	=122
1r	.
=123	=123
1r	.
=124	=124
1r	.
=125	=125
1r	.
=126	=126
1r	.
=127	=127
1r	.
=128	=128
1r	.
=129	=129
1r	.
=130	=130
1r	.
=131	=131
1r	.
=132	=132
1r	.
=133	=133
1r	.
=134	=134
1r	.
=135	=135
1r	.
=136	=136
1r	.
=137	=137
1r	.
=138	=138
1r	.
=139	=139
1r	.
=140	=140
1r	.
=141	=141
1r	.
=142	=142
1r	.
=143	=143
1r	.
=144	=144
1r	.
=145	=145
1r	.
=146	=146
1r	.
=147	=147
1r	.
=148	=148
1r	.
=149	=149
1r	.
=150	=150
1r	.
=151	=151
1r	.
r;	.
r;	.
*-	*-
!!!ENC: Nathaniel Condit-Schultz